packages/synapse-interface/assets/icons/note.svg

<svg fill="none" height="48" viewBox="0 0 48 48" width="48" xmlns="http://www.w3.org/2000/svg" xmlns:xlink="http://www.w3.org/1999/xlink"><clipPath id="a"><path d="m0 0h48v48h-48z"/></clipPath><g clip-path="url(#a)"><path clip-rule="evenodd" d="m.100006 24c0-13.1996 10.700394-23.9000244 23.899994-23.9000244s23.9 10.7004244 23.9 23.9000244-10.7004 23.9-23.9 23.9-23.899994-10.7004-23.899994-23.9z" fill="#06fc99" fill-rule="evenodd"/><g fill="#161616"><path d="m30.238 12.6583h2.8355v2.8355h-2.8355z"/><path d="m21.7318 16.0607h-2.8354v4.5367h2.8354z"/><path d="m24.5673 20.0304h-2.8355v4.5367h1.134l1.7013.0001v2.8354h2.8355v-3.9697h1.1343v-1.1341h1.7011v4.5366h2.8355v-5.6707h-1.7013-1.1342-1.7013l.0002 1.1341-2.8355-.0001v.5671h-1.1341z"/><path d="m31.3722 21.1647 2.8354-.0001v-1.1342h-1.1341v-4.5366h-2.8355v5.6709z"/><path d="m34.2076 18.8964h2.8355v1.1341l-2.8355-.0001z"/><path d="m22.8658 24.5671h-2.8354v1.1342h2.8354z"/><path d="m18.8961 26.8356h1.1344l-.0001-1.1343-1.1343.0001v-13.0431h-2.8354v14.1771h-1.7011v1.1342h1.7011v7.3722h2.8354z"/><path d="m11.5242 27.9696h2.8354v1.1342h-2.8354z"/><path d="m27.4027 26.8354h2.8353 2.8355v2.8355 5.6709h-2.8355v-3.9696h-2.8353z"/></g></g></svg>

<svg width="48" height="48" viewBox="0 0 48 48" fill="none" xmlns="http://www.w3.org/2000/svg">
<g clip-path="url(#clip0_1275_22888)">
<path fill-rule="evenodd" clip-rule="evenodd" d="M0.100006 24C0.100006 10.8004 10.8004 0.0999756 24 0.0999756C37.1996 0.0999756 47.9 10.8004 47.9 24C47.9 37.1996 37.1996 47.9 24 47.9C10.8004 47.9 0.100006 37.1996 0.100006 24Z" fill="#06FC99"/>
<path d="M30.238 12.6583H33.0735V15.4938H30.238V12.6583Z" fill="#161616"/>
<path d="M21.7318 16.0607H18.8964V20.5974H21.7318V16.0607Z" fill="#161616"/>
<path d="M24.5673 20.0304H21.7318V24.5671H22.8658L24.5671 24.5672V27.4026H27.4026V23.4329H28.5369V22.2988H30.238V26.8354H33.0735V21.1647H31.3722H30.238H28.5367L28.5369 22.2988L25.7014 22.2987V22.8658H24.5673V20.0304Z" fill="#161616"/>
<path d="M31.3722 21.1647L34.2076 21.1646V20.0304H33.0735V15.4938H30.238V21.1647H31.3722Z" fill="#161616"/>
<path d="M34.2076 18.8964H37.0431V20.0305L34.2076 20.0304L34.2076 18.8964Z" fill="#161616"/>
<path d="M22.8658 24.5671L20.0304 24.5671V25.7013H22.8658L22.8658 24.5671Z" fill="#161616"/>
<path d="M18.8961 26.8356H20.0305L20.0304 25.7013L18.8961 25.7014V12.6583H16.0607V26.8354H14.3596V27.9696H16.0607V35.3418H18.8961V26.8356Z" fill="#161616"/>
<path d="M11.5242 27.9696L14.3596 27.9696L14.3596 29.1038H11.5242V27.9696Z" fill="#161616"/>
<path d="M27.4027 26.8354L30.238 26.8354H33.0735V29.6709V35.3418H30.238V31.3722H27.4027V26.8354Z" fill="#161616"/>
</g>
<defs>
<clipPath id="clip0_1275_22888">
<rect width="48" height="48" fill="white"/>
</clipPath>
</defs>
</svg>
